X: 1
T: Follow Me Up To Carlow   [Dm]
O: Ireland
Z: 1997 by John Chambers <jc:trillian.mit.edu>
N: A well-known Irish rebel tune.
R: jig, march
M: 6/8
L: 1/8
K: Ddor
|:"Dm"D2D D2C | A,2B, C3 |    D2D    F2G | "(A)"A2G F2E \
| "Dm"D2D D2C | A,2B, C3 |    D2D "C"E2C |  "Dm"D3- D2z :|
|:"Am"A2B c3  | A2B   c3 | "C"E2E    E2D |      C2D E3 \
| "Am"A2B c3  | A2B   c3 | "C"E>EE   E2C |  "Dm"D3- Dz2 :|

%%sep 1 1 500
%%sep 1 1 500

